contributed-vectors/amazon_seller.svg

<svg viewBox="0 0 192 192" xmlns="http://www.w3.org/2000/svg" fill-rule="evenodd" clip-rule="evenodd" stroke-linejoin="round" stroke-miterlimit="2"><path d="M172.5 29.5c0-5.519-4.481-10-10-10h-133c-5.519 0-10 4.481-10 10v133c0 5.519 4.481 10 10 10h133c5.519 0 10-4.481 10-10v-133z" fill="#4a4a4a"/><path d="M92.363 19.5a228.695 228.695 0 00-.076 5.921c0 12.36.966 22.396 2.155 22.396v3.025c-1.35 0-2.446-11.391-2.446-25.421 0-2.039.023-4.021.067-5.921h.3z" fill="#a0a5af"/><path d="M75.411 40.378h38.061l17.47 24.209v81.416h-73V64.587l17.469-24.209zm19.031 7.697a3.947 3.947 0 013.945 3.946 3.947 3.947 0 01-3.945 3.945 3.947 3.947 0 010-7.891z" fill="#fff"/><path d="M122.07 122.003c1.386 1.545-.826 7.223-.906 7.469 0 0 4.433-4.456 3.761-9.966-5.188-1.973-10.507 1.348-10.507 1.348s5.035-1.651 7.652 1.149" fill="#f8c18c"/><text x="133.701" y="124.178" font-family="'OfficinaSans-Book','ITC Officina Sans Book'" font-weight="500" font-size="90.254" fill="#4a4a4a" stroke="#4a4a4a" stroke-width="2.33" transform="translate(-59.701 -9.21)">a</text><path d="M120.711 123.406c-32.249 28.002-57.883-4.545-57.883-4.545s24.716 20.186 57.883 4.545" fill="#f8c18c"/><path d="M96.821 19.5c.043 1.9.067 3.882.067 5.921 0 14.03-1.096 25.421-2.446 25.421-.144-.898-.209-1.81 0-2.767 1.189 0 2.155-10.294 2.155-22.654 0-2.049-.027-4.035-.077-5.921h.301z" fill="#a0a5af"/></svg>

<?xml version="1.0" encoding="UTF-8" standalone="no"?>
<!DOCTYPE svg PUBLIC "-//W3C//DTD SVG 1.1//EN" "http://www.w3.org/Graphics/SVG/1.1/DTD/svg11.dtd">
<svg width="100%" height="100%" viewBox="0 0 192 192" version="1.1" xmlns="http://www.w3.org/2000/svg" xmlns:xlink="http://www.w3.org/1999/xlink" xml:space="preserve" xmlns:serif="http://www.serif.com/" style="fill-rule:evenodd;clip-rule:evenodd;stroke-linejoin:round;stroke-miterlimit:2;">
    <g id="Layer1">
        <g transform="matrix(1,0,0,1,8,8)">
            <path d="M164.5,21.5C164.5,15.981 160.019,11.5 154.5,11.5L21.5,11.5C15.981,11.5 11.5,15.981 11.5,21.5L11.5,154.5C11.5,160.019 15.981,164.5 21.5,164.5L154.5,164.5C160.019,164.5 164.5,160.019 164.5,154.5L164.5,21.5Z" style="fill:rgb(74,74,74);"/>
        </g>
        <path d="M92.363,19.5C92.314,21.386 92.287,23.372 92.287,25.421C92.287,37.781 93.253,47.817 94.442,47.817L94.442,50.842C93.092,50.842 91.996,39.451 91.996,25.421C91.996,23.382 92.019,21.4 92.063,19.5L92.363,19.5Z" style="fill:rgb(160,165,175);"/>
        <path d="M75.411,40.378L113.472,40.378L130.942,64.587L130.942,146.003L57.942,146.003L57.942,64.587L75.411,40.378ZM94.442,48.075C96.619,48.075 98.387,49.843 98.387,52.021C98.387,54.198 96.619,55.966 94.442,55.966C92.264,55.966 90.497,54.198 90.497,52.021C90.497,49.843 92.264,48.075 94.442,48.075Z" style="fill:white;"/>
        <path d="M122.07,122.003C123.456,123.548 121.244,129.226 121.164,129.472C121.164,129.472 125.597,125.016 124.925,119.506C119.737,117.533 114.418,120.854 114.418,120.854C114.418,120.854 119.453,119.203 122.07,122.003" style="fill:rgb(248,193,140);"/>
        <g transform="matrix(1,0,0,1,-59.701,-9.21076)">
            <text x="133.701px" y="124.178px" style="font-family:'OfficinaSans-Book', 'ITC Officina Sans Book';font-weight:500;font-size:90.254px;fill:rgb(74,74,74);stroke:rgb(74,74,74);stroke-width:2.33px;">a</text>
        </g>
        <path d="M120.711,123.406C88.462,151.408 62.828,118.861 62.828,118.861C62.828,118.861 87.544,139.047 120.711,123.406" style="fill:rgb(248,193,140);"/>
        <path d="M96.821,19.5C96.864,21.4 96.888,23.382 96.888,25.421C96.888,39.451 95.792,50.842 94.442,50.842C94.298,49.944 94.233,49.032 94.442,48.075C95.631,48.075 96.597,37.781 96.597,25.421C96.597,23.372 96.57,21.386 96.52,19.5L96.821,19.5Z" style="fill:rgb(160,165,175);"/>
    </g>
</svg>
